lib/radiotmp/nrk-alarm-clock-expressive.svg

<svg width="24" height="24" viewBox="0 0 24 24" fill="none" xmlns="http://www.w3.org/2000/svg">
<path d="M11.5858 13C11.2107 12.6249 11 12.1162 11 11.5858V7C11 6.44771 11.4477 6 12 6C12.5523 6 13 6.44771 13 7V11.5858L16 14.5858C16.3905 14.9763 16.3905 15.6095 16 16C15.6095 16.3905 14.9763 16.3905 14.5858 16L11.5858 13Z" fill="black"/>
<path fill-rule="evenodd" clip-rule="evenodd" d="M1 12C1 5.9249 5.9249 0.999996 12 0.999996C18.0751 0.999996 23 5.9249 23 12C23 14.6775 22.0416 17.1299 20.4515 19.0374L22.2929 20.8788C22.6834 21.2693 22.6834 21.9025 22.2929 22.2929C21.9025 22.6834 21.2693 22.6834 20.8788 22.2929L19.0374 20.4515C17.1299 22.0416 14.6775 23 12 23C9.3225 23 6.8701 22.0416 4.9626 20.4515L3.12115 22.2929C2.73066 22.6834 2.09754 22.6834 1.70705 22.2929C1.31656 21.9025 1.31656 21.2693 1.70705 20.8788L3.5485 19.0374C1.9584 17.1299 1 14.6775 1 12ZM12 3C7.0294 3 3 7.0294 3 12C3 16.9705 7.0294 21 12 21C16.9706 21 21 16.9705 21 12C21 7.0294 16.9706 3 12 3Z" fill="black"/>
<path d="M3.58002 2.07812C3.58002 2.90655 2.90844 3.57812 2.08002 3.57812C1.25159 3.57812 0.580017 2.90655 0.580017 2.07812C0.580017 1.2497 1.25159 0.578125 2.08002 0.578125C2.90844 0.578125 3.58002 1.2497 3.58002 2.07812Z" fill="black"/>
<path d="M23.42 2.07812C23.42 2.90655 22.7485 3.57812 21.92 3.57812C21.0916 3.57812 20.42 2.90655 20.42 2.07812C20.42 1.2497 21.0916 0.578125 21.92 0.578125C22.7485 0.578125 23.42 1.2497 23.42 2.07812Z" fill="black"/>
</svg>

<svg xmlns="http://www.w3.org/2000/svg" viewBox="0 0 24 24"><path fill="#000" d="M11.586 13A2 2 0 0 1 11 11.586V7a1 1 0 1 1 2 0v4.586l3 3A1 1 0 0 1 14.586 16l-3-3Z"/><path fill="#000" fill-rule="evenodd" d="M1 12C1 5.925 5.925 1 12 1s11 4.925 11 11c0 2.678-.958 5.13-2.549 7.037l1.842 1.842a1 1 0 1 1-1.414 1.414l-1.842-1.841A10.952 10.952 0 0 1 12 23c-2.678 0-5.13-.958-7.037-2.549L3.12 22.293a1 1 0 1 1-1.414-1.414l1.842-1.842A10.952 10.952 0 0 1 1 12Zm11-9a9 9 0 1 0 0 18 9 9 0 0 0 0-18Z" clip-rule="evenodd"/><path fill="#000" d="M3.58 2.078a1.5 1.5 0 1 1-3 0 1.5 1.5 0 0 1 3 0ZM23.42 2.078a1.5 1.5 0 1 1-3 0 1.5 1.5 0 0 1 3 0Z"/></svg>
